;FLAVOR:RepRap
;TIME:2660
;Generated with Cura_SteamEngine 2.3.1
M190 S60
M104 S200
M109 S200
G21 ;metric values
G90 ;absolute positioning
M82 ;set extruder to absolute mode
M107 ;start with the fan off
G28 ;Home all axes (max endstops)
G1 Z15.0 F9000 ;move the platform down 15mm
G92 E0 ;zero the extruded length
G1 F200 E3 ;extrude 3mm of feed stock
G92 E0 ;zero the extruded length again
G1 F9000
;Put printing message on LCD screen
M117 Printing...
;LAYER_COUNT:19
;LAYER:0
M107
G1 F1500 E-6.5
G0 F3600 X2.67 Y10.578 Z.3
;TYPE:SKIRT
G1 F1500 E0
G1 F1800 X-2.819 Y10.657 E0.27388
G1 X-8.274 Y11.044 E0.54671
G1 X-13.703 Y11.739 E0.81978
G1 X-19.105 Y12.745 E1.09392
G1 X-21.713 Y13.344 E1.22742
G1 X-27.039 Y14.813 E1.50305
G1 X-32.226 Y16.562 E1.77615
G1 X-37.318 Y18.609 E2.04995
G1 X-39.909 Y19.766 E2.19152
G1 X-40.385 Y19.935 E2.21672
G1 X-40.883 Y20.027 E2.24198
G1 X-41.214 Y20.044 E2.25852
G1 X-51.193 Y20.044 E2.75637
G1 X-51.697 Y20.004 E2.7816
G1 X-52.188 Y19.885 E2.8068
G1 X-52.655 Y19.691 E2.83203
G1 X-53.085 Y19.425 E2.85726
G1 X-53.468 Y19.095 E2.88248
G1 X-53.794 Y18.708 E2.90772
G1 X-54.055 Y18.275 E2.93295
G1 X-54.245 Y17.807 E2.95815
G1 X-54.358 Y17.314 E2.98338
G1 X-54.393 Y16.844 E3.00689
G1 X-54.392 Y-3.128 E4.0033
G1 X-54.352 Y-3.632 E4.02852
G1 X-54.233 Y-4.124 E4.05378
G1 X-54.038 Y-4.59 E4.07898
G1 X-53.773 Y-5.02 E4.10418
G1 X-53.442 Y-5.403 E4.12944
G1 X-52.918 Y-5.823 E4.16294
G1 X-20.668 Y-26.475 E6.07352
G1 X-20.222 Y-26.713 E6.09874
G1 X-19.744 Y-26.878 E6.12397
G1 X-19.246 Y-26.966 E6.1492
G1 X-18.942 Y-26.98 E6.16439
G1 X40.888 Y-26.983 E9.14932
G1 X41.392 Y-26.943 E9.17454
G1 X41.883 Y-26.824 E9.19975
G1 X42.35 Y-26.63 E9.22498
G1 X42.78 Y-26.364 E9.2502
G1 X43.163 Y-26.034 E9.27542
G1 X43.602 Y-25.479 E9.31073
G1 X56.493 Y-4.851 E10.52429
G1 X56.726 Y-4.402 E10.54953
G1 X56.886 Y-3.923 E10.57473
G1 X56.968 Y-3.424 E10.59995
G1 X56.979 Y-3.156 E10.61334
G1 X56.988 Y16.843 E11.61109
G1 X56.948 Y17.347 E11.63631
G1 X56.83 Y17.838 E11.66151
G1 X56.635 Y18.305 E11.68676
G1 X56.37 Y18.735 E11.71196
G1 X56.04 Y19.118 E11.73718
G1 X55.653 Y19.444 E11.76242
G1 X55.221 Y19.705 E11.7876
G1 X54.752 Y19.895 E11.81285
G1 X54.259 Y20.009 E11.83809
G1 X53.788 Y20.044 E11.86166
G1 X43.803 Y20.043 E12.35981
G1 X43.299 Y20.003 E12.38503
G1 X42.807 Y19.884 E12.41029
G1 X42.528 Y19.778 E12.42518
G1 X37.364 Y17.535 E12.70606
G1 X32.227 Y15.638 E12.97927
G1 X26.993 Y14.038 E13.25232
G1 X21.628 Y12.722 E13.52792
G1 X19.001 Y12.198 E13.66156
G1 X13.582 Y11.349 E13.93521
G1 X8.135 Y10.809 E14.2083
G1 X2.67 Y10.578 E14.48119
G1 F1500 E7.98119
G0 F3600 X2.67 Y.07
G0 X2.67 Y-1.235
G0 X-18.736 Y-23.098
G0 X-18.764 Y-23.193
;TYPE:WALL-INNER
G1 F1500 E14.48119
G1 F1800 X40.56 Y-23.193 E17.44088
G1 X53.197 Y-2.974 E18.63042
G1 X53.197 Y16.253 E19.58966
G1 X44.397 Y16.253 E20.0287
G1 X44.397 Y3.03 E20.68839
G1 X41.213 Y-1.195 E20.95233
G1 X-37.334 Y-1.195 E24.87106
G1 X-41.802 Y1.624 E25.13463
G1 X-41.802 Y16.253 E25.86447
G1 X-50.602 Y16.253 E26.30351
G1 X-50.602 Y-2.818 E27.25496
G1 X-18.764 Y-23.193 E29.14078
G0 F3600 X-18.882 Y-23.593
;TYPE:WALL-OUTER
G1 F1800 X40.782 Y-23.593 E32.11743
G1 X53.597 Y-3.088 E33.32379
G1 X53.597 Y16.653 E34.30867
G1 X43.997 Y16.653 E34.78761
G1 X43.997 Y3.164 E35.46058
G1 X41.014 Y-.795 E35.70789
G1 X-37.218 Y-.795 E39.6109
G1 X-41.402 Y1.845 E39.85772
G1 X-41.402 Y16.653 E40.59649
G1 X-51.002 Y16.653 E41.07544
G1 X-51.002 Y-3.037 E42.05778
G1 X-18.882 Y-23.593 E43.96032
G0 F3600 X-18.487 Y-23.012
;TYPE:SKIN
G1 F1800 X3.15 Y-1.375 E45.48692
G0 X3.22 Y-1.305
G0 F3600 X3.715 Y-1.375
G1 F1800 X-17.921 Y-23.012 E47.0135
G0 X-17.991 Y-23.082
G0 F3600 X-17.355 Y-23.012
G1 F1800 X4.281 Y-1.375 E48.54007
G0 X4.351 Y-1.305
G0 F3600 X4.847 Y-1.375
G1 F1800 X-16.79 Y-23.012 E50.06668
G0 X-16.86 Y-23.082
G0 F3600 X-16.224 Y-23.012
G1 F1800 X5.412 Y-1.375 E51.59325
G0 X5.482 Y-1.305
G0 F3600 X5.978 Y-1.375
G1 F1800 X-15.658 Y-23.012 E53.11982
G0 X-15.728 Y-23.082
G0 F3600 X-15.093 Y-23.012
G1 F1800 X6.544 Y-1.375 E54.64643
G0 X6.614 Y-1.305
G0 F3600 X7.109 Y-1.375
G1 F1800 X-14.527 Y-23.012 E56.173
G0 X-14.597 Y-23.082
G0 F3600 X-13.961 Y-23.012
G1 F1800 X7.675 Y-1.375 E57.69957
G0 X7.745 Y-1.305
G0 F3600 X8.241 Y-1.375
G1 F1800 X-13.396 Y-23.012 E59.22618
G0 X-13.466 Y-23.082
G0 F3600 X-12.83 Y-23.012
G1 F1800 X8.807 Y-1.375 E60.75279
G0 X8.877 Y-1.305
G0 F3600 X9.372 Y-1.375
G1 F1800 X-12.264 Y-23.012 E62.27936
G0 X-12.334 Y-23.082
G0 F3600 X-11.699 Y-23.012
G1 F1800 X9.938 Y-1.375 E63.80596
G0 X10.008 Y-1.305
G0 F3600 X10.504 Y-1.375
G1 F1800 X-11.133 Y-23.012 E65.33257
G0 X-11.203 Y-23.082
G0 F3600 X-10.567 Y-23.012
G1 F1800 X11.069 Y-1.375 E66.85914
G0 X11.139 Y-1.305
G0 F3600 X11.635 Y-1.375
G1 F1800 X-10.002 Y-23.012 E68.38575
G0 X-10.072 Y-23.082
G0 F3600 X-9.436 Y-23.012
G1 F1800 X12.201 Y-1.375 E69.91236
G0 X12.271 Y-1.305
G0 F3600 X12.766 Y-1.375
G1 F1800 X-8.87 Y-23.012 E71.43893
G0 X-8.94 Y-23.082
G0 F3600 X-8.304 Y-23.012
G1 F1800 X13.332 Y-1.375 E72.9655
G0 X13.402 Y-1.305
G0 F3600 X13.898 Y-1.375
G1 F1800 X-7.739 Y-23.012 E74.49211
G0 X-7.809 Y-23.082
G0 F3600 X-7.173 Y-23.012
G1 F1800 X14.463 Y-1.375 E76.01868
G0 X14.533 Y-1.305
G0 F3600 X15.029 Y-1.375
G1 F1800 X-6.607 Y-23.012 E77.54525
G0 X-6.677 Y-23.082
G0 F3600 X-6.042 Y-23.012
G1 F1800 X15.595 Y-1.375 E79.07186
G0 X15.665 Y-1.305
G0 F3600 X16.16 Y-1.375
G1 F1800 X-5.476 Y-23.012 E80.59843
G0 X-5.546 Y-23.082
G0 F3600 X-4.91 Y-23.012
G1 F1800 X16.726 Y-1.375 E82.125
G0 X16.796 Y-1.305
G0 F3600 X17.292 Y-1.375
G1 F1800 X-4.345 Y-23.012 E83.65161
G0 X-4.415 Y-23.082
G0 F3600 X-3.779 Y-23.012
G1 F1800 X17.857 Y-1.375 E85.17818
G0 X17.927 Y-1.305
G0 F3600 X18.423 Y-1.375
G1 F1800 X-3.213 Y-23.012 E86.70476
G0 X-3.283 Y-23.082
G0 F3600 X-2.648 Y-23.012
G1 F1800 X18.989 Y-1.375 E88.23136
G0 X19.059 Y-1.305
G0 F3600 X19.555 Y-1.375
G1 F1800 X-2.082 Y-23.012 E89.75797
G0 X-2.152 Y-23.082
G0 F3600 X-1.516 Y-23.012
G1 F1800 X20.12 Y-1.375 E91.28454
G0 X20.19 Y-1.305
G0 F3600 X20.686 Y-1.375
G1 F1800 X-.951 Y-23.012 E92.81115
G0 X-1.021 Y-23.082
G0 F3600 X-.385 Y-23.012
G1 F1800 X21.252 Y-1.375 E94.33776
G0 X21.322 Y-1.305
G0 F3600 X21.817 Y-1.375
G1 F1800 X.18 Y-23.012 E95.86436
G0 X.11 Y-23.082
G0 F3600 X.745 Y-23.012
G1 F1800 X22.383 Y-1.375 E97.39101
G0 X22.453 Y-1.305
G0 F3600 X22.949 Y-1.375
G1 F1800 X1.311 Y-23.012 E98.91765
G0 X1.241 Y-23.082
G0 F3600 X1.877 Y-23.012
G1 F1800 X23.514 Y-1.375 E100.44426
G0 X23.584 Y-1.305
G0 F3600 X24.08 Y-1.375
G1 F1800 X2.443 Y-23.012 E101.97086
G0 X2.373 Y-23.082
G0 F3600 X3.008 Y-23.012
G1 F1800 X24.646 Y-1.375 E103.49751
G0 X24.716 Y-1.305
G0 F3600 X25.211 Y-1.375
G1 F1800 X3.574 Y-23.012 E105.02411
G0 X3.504 Y-23.082
G0 F3600 X4.14 Y-23.012
G1 F1800 X25.777 Y-1.375 E106.55072
G0 X25.847 Y-1.305
G0 F3600 X26.343 Y-1.375
G1 F1800 X4.705 Y-23.012 E108.07736
G0 X4.635 Y-23.082
G0 F3600 X5.271 Y-23.012
G1 F1800 X26.908 Y-1.375 E109.60397
G0 X26.978 Y-1.305
G0 F3600 X27.474 Y-1.375
G1 F1800 X5.837 Y-23.012 E111.13058
G0 X5.767 Y-23.082
G0 F3600 X6.402 Y-23.012
G1 F1800 X28.04 Y-1.375 E112.65722
G0 X28.11 Y-1.305
G0 F3600 X28.606 Y-1.375
G1 F1800 X6.968 Y-23.012 E114.18386
G0 X6.898 Y-23.082
G0 F3600 X7.534 Y-23.012
G1 F1800 X29.171 Y-1.375 E115.71047
G0 X29.241 Y-1.305
G0 F3600 X29.737 Y-1.375
G1 F1800 X8.099 Y-23.012 E117.23711
G0 X8.029 Y-23.082
G0 F3600 X8.665 Y-23.012
G1 F1800 X30.303 Y-1.375 E118.76375
G0 X30.373 Y-1.305
G0 F3600 X30.868 Y-1.375
G1 F1800 X9.231 Y-23.012 E120.29036
G0 X9.161 Y-23.082
G0 F3600 X9.796 Y-23.012
G1 F1800 X31.434 Y-1.375 E121.817
G0 X31.504 Y-1.305
G0 F3600 X32 Y-1.375
G1 F1800 X10.362 Y-23.012 E123.34365
G0 X10.292 Y-23.082
G0 F3600 X10.928 Y-23.012
G1 F1800 X32.565 Y-1.375 E124.87025
G0 X32.635 Y-1.305
G0 F3600 X33.131 Y-1.375
G1 F1800 X11.494 Y-23.012 E126.39686
G0 X11.424 Y-23.082
G0 F3600 X12.059 Y-23.012
G1 F1800 X33.697 Y-1.375 E127.9235
G0 X33.767 Y-1.305
G0 F3600 X34.262 Y-1.375
G1 F1800 X12.625 Y-23.012 E129.45011
G0 X12.555 Y-23.082
G0 F3600 X13.191 Y-23.012
G1 F1800 X34.828 Y-1.375 E130.97672
G0 X34.898 Y-1.305
G0 F3600 X35.394 Y-1.375
G1 F1800 X13.756 Y-23.012 E132.50336
G0 X13.686 Y-23.082
G0 F3600 X14.322 Y-23.012
G1 F1800 X35.959 Y-1.375 E134.02997
G0 X36.029 Y-1.305
G0 F3600 X36.525 Y-1.375
G1 F1800 X14.888 Y-23.012 E135.55657
G0 X14.818 Y-23.082
G0 F3600 X15.453 Y-23.012
G1 F1800 X37.091 Y-1.375 E137.08322
G0 X37.161 Y-1.305
G0 F3600 X37.656 Y-1.375
G1 F1800 X16.019 Y-23.012 E138.60982
G0 X15.949 Y-23.082
G0 F3600 X16.585 Y-23.012
G1 F1800 X38.222 Y-1.375 E140.13643
G0 X38.292 Y-1.305
G0 F3600 X38.788 Y-1.375
G1 F1800 X17.15 Y-23.012 E141.66307
G0 X17.08 Y-23.082
G0 F3600 X17.716 Y-23.012
G1 F1800 X39.354 Y-1.375 E143.18972
G0 X39.424 Y-1.305
G0 F3600 X39.919 Y-1.375
G1 F1800 X18.282 Y-23.012 E144.71632
G0 X18.212 Y-23.082
G0 F3600 X18.847 Y-23.012
G1 F1800 X40.485 Y-1.375 E146.24297
G0 X40.555 Y-1.305
G0 F3600 X41.051 Y-1.375
G1 F1800 X19.413 Y-23.012 E147.76961
G0 X19.343 Y-23.082
G0 F3600 X19.979 Y-23.012
G1 F1800 X53.016 Y10.024 E150.10051
G0 X53.086 Y10.094
G0 F3600 X53.016 Y9.458
G1 F1800 X20.544 Y-23.012 E152.39152
G0 X20.474 Y-23.082
G0 F3600 X21.11 Y-23.012
G1 F1800 X53.016 Y8.893 E154.64262
G0 X53.086 Y8.963
G0 F3600 X53.016 Y8.327
G1 F1800 X21.676 Y-23.012 E156.85379
G0 X21.606 Y-23.082
G0 F3600 X22.242 Y-23.012
G1 F1800 X53.016 Y7.761 E159.02503
G0 X53.086 Y7.831
G0 F3600 X53.016 Y7.196
G1 F1800 X22.807 Y-23.012 E161.1564
G0 X22.737 Y-23.082
G0 F3600 X23.373 Y-23.012
G1 F1800 X53.016 Y6.63 E163.24784
G0 X53.086 Y6.7
G0 F3600 X53.016 Y6.064
G1 F1800 X23.939 Y-23.012 E165.29934
G0 X23.869 Y-23.082
G0 F3600 X24.504 Y-23.012
G1 F1800 X53.016 Y5.499 E167.31098
G0 X53.086 Y5.569
G0 F3600 X53.016 Y4.933
G1 F1800 X25.07 Y-23.012 E169.28269
G0 X25 Y-23.082
G0 F3600 X25.636 Y-23.012
G1 F1800 X53.016 Y4.367 E171.21446
G0 X53.086 Y4.437
G0 F3600 X53.016 Y3.802
G1 F1800 X26.201 Y-23.012 E173.10637
G0 X26.131 Y-23.082
G0 F3600 X26.767 Y-23.012
G1 F1800 X53.016 Y3.236 E174.95834
G0 X53.086 Y3.306
G0 F3600 X53.016 Y2.67
G1 F1800 X27.333 Y-23.012 E176.77038
G0 X27.263 Y-23.082
G0 F3600 X27.898 Y-23.012
G1 F1800 X53.016 Y2.105 E178.54256
G0 X53.086 Y2.175
G0 F3600 X53.016 Y1.539
G1 F1800 X28.464 Y-23.012 E180.2748
G0 X28.394 Y-23.082
G0 F3600 X29.03 Y-23.012
G1 F1800 X53.016 Y.973 E181.96711
G0 X53.086 Y1.043
G0 F3600 X53.016 Y.408
G1 F1800 X29.595 Y-23.012 E183.61955
G0 X29.525 Y-23.082
G0 F3600 X30.161 Y-23.012
G1 F1800 X53.016 Y-.157 E185.23209
G0 X53.086 Y-.087
G0 F3600 X53.016 Y-.723
G1 F1800 X30.727 Y-23.012 E186.8047
G0 X30.657 Y-23.082
G0 F3600 X31.293 Y-23.012
G1 F1800 X53.016 Y-1.289 E188.33738
G0 X53.086 Y-1.219
G0 F3600 X53.016 Y-1.854
G1 F1800 X31.858 Y-23.012 E189.83019
G0 X31.788 Y-23.082
G0 F3600 X32.424 Y-23.012
G1 F1800 X53.016 Y-2.42 E191.28306
G0 X53.086 Y-2.35
G0 F3600 X52.907 Y-3.095
G1 F1800 X32.99 Y-23.012 E192.68832
G0 X32.92 Y-23.082
G0 F3600 X33.555 Y-23.012
G1 F1800 X51.965 Y-4.603 E193.98721
G0 X52.035 Y-4.533
G0 F3600 X51.022 Y-6.111
G1 F1800 X34.121 Y-23.012 E195.17966
G0 X34.051 Y-23.082
G0 F3600 X34.687 Y-23.012
G1 F1800 X50.08 Y-7.619 E196.26572
G0 X50.15 Y-7.549
G0 F3600 X49.136 Y-9.128
G1 F1800 X35.252 Y-23.012 E197.24531
G0 X35.182 Y-23.082
G0 F3600 X35.818 Y-23.012
G1 F1800 X48.194 Y-10.637 E198.11847
G0 X48.264 Y-10.567
G0 F3600 X47.251 Y-12.145
G1 F1800 X36.384 Y-23.012 E198.8852
G0 X36.314 Y-23.082
G0 F3600 X36.949 Y-23.012
G1 F1800 X46.309 Y-13.653 E199.54556
G0 X46.379 Y-13.583
G0 F3600 X45.366 Y-15.161
G1 F1800 X37.515 Y-23.012 E200.09949
G0 X37.445 Y-23.082
G0 F3600 X38.081 Y-23.012
G1 F1800 X44.423 Y-16.67 E200.54695
G0 X44.493 Y-16.6
G0 F3600 X43.48 Y-18.179
G1 F1800 X38.646 Y-23.012 E200.88798
G0 X38.576 Y-23.082
G0 F3600 X39.212 Y-23.012
G1 F1800 X42.538 Y-19.687 E201.12261
G0 X42.608 Y-19.617
G0 F3600 X41.595 Y-21.195
G1 F1800 X39.778 Y-23.012 E201.25081
G0 X39.708 Y-23.082
G0 F3600 X40.343 Y-23.012
G1 F1800 X40.652 Y-22.703 E201.27262
G0 F3600 X42.067 Y-.359
G1 F1800 X53.016 Y10.59 E202.04513
G0 X53.086 Y10.66
G0 F3600 X53.016 Y11.156
G1 F1800 X43.797 Y1.936 E202.69561
G0 X43.727 Y1.866
G0 F3600 X44.576 Y3.28
G1 F1800 X53.016 Y11.721 E203.29113
G0 X53.086 Y11.791
G0 F3600 X53.016 Y12.287
G1 F1800 X44.576 Y3.846 E203.88666
G0 X44.506 Y3.776
G0 F3600 X44.576 Y4.412
G1 F1800 X53.016 Y12.853 E204.48218
G0 X53.086 Y12.923
G0 F3600 X53.016 Y13.418
G1 F1800 X44.576 Y4.978 E205.07767
G0 X44.506 Y4.908
G0 F3600 X44.576 Y5.543
G1 F1800 X53.016 Y13.984 E205.67319
G0 X53.086 Y14.054
G0 F3600 X53.016 Y14.55
G1 F1800 X44.576 Y6.109 E206.26871
G0 X44.506 Y6.039
G0 F3600 X44.576 Y6.675
G1 F1800 X53.016 Y15.115 E206.8642
G0 X53.086 Y15.185
G0 F3600 X53.016 Y15.681
G1 F1800 X44.576 Y7.24 E207.45972
G0 X44.506 Y7.17
G0 F3600 X44.576 Y7.806
G1 F1800 X52.842 Y16.073 E208.04297
G0 X52.912 Y16.143
G0 F3600 X52.277 Y16.073
G1 F1800 X44.576 Y8.372 E208.58632
G0 X44.506 Y8.302
G0 F3600 X44.576 Y8.937
G1 F1800 X51.711 Y16.073 E209.08977
G0 X51.781 Y16.143
G0 F3600 X51.145 Y16.073
G1 F1800 X44.576 Y9.503 E209.55328
G0 X44.506 Y9.433
G0 F3600 X44.576 Y10.069
G1 F1800 X50.58 Y16.073 E209.97689
G0 X50.65 Y16.143
G0 F3600 X50.014 Y16.073
G1 F1800 X44.576 Y10.634 E210.36061
G0 X44.506 Y10.564
G0 F3600 X44.576 Y11.2
G1 F1800 X49.448 Y16.073 E210.70439
G0 X49.518 Y16.143
G0 F3600 X48.882 Y16.073
G1 F1800 X44.576 Y11.766 E211.00824
G0 X44.506 Y11.696
G0 F3600 X44.576 Y12.331
G1 F1800 X48.317 Y16.073 E211.27222
G0 X48.387 Y16.143
G0 F3600 X47.751 Y16.073
G1 F1800 X44.576 Y12.897 E211.49627
G0 X44.506 Y12.827
G0 F3600 X44.576 Y13.463
G1 F1800 X47.185 Y16.073 E211.68038
G0 X47.255 Y16.143
G0 F3600 X46.62 Y16.073
G1 F1800 X44.576 Y14.028 E211.82463
G0 X44.506 Y13.958
G0 F3600 X44.576 Y14.594
G1 F1800 X46.054 Y16.073 E211.92895
G0 X46.124 Y16.143
G0 F3600 X45.488 Y16.073
G1 F1800 X44.576 Y15.16 E211.99333
G0 X44.506 Y15.09
G0 F3600 X44.576 Y15.726
G1 F1800 X44.923 Y16.073 E212.01782
G0 F3600 X44.434 Y3.018
G0 X41.23 Y-1.23
G0 X2.584 Y-1.375
G1 F1800 X-18.919 Y-22.879 E213.535
G0 X-18.989 Y-22.949
G0 F3600 X-19.264 Y-22.658
G1 F1800 X2.018 Y-1.375 E215.0366
G0 X2.088 Y-1.305
G0 F3600 X1.453 Y-1.375
G1 F1800 X-19.609 Y-22.437 E216.52264
G0 X-19.679 Y-22.507
G0 F3600 X-19.954 Y-22.217
G1 F1800 X.887 Y-1.375 E217.99312
G0 X.957 Y-1.305
G0 F3600 X.321 Y-1.375
G1 F1800 X-20.299 Y-21.996 E219.448
G0 X-20.369 Y-22.066
G0 F3600 X-20.644 Y-21.776
G1 F1800 X-.243 Y-1.375 E220.88741
G0 X-.173 Y-1.305
G0 F3600 X-.809 Y-1.375
G1 F1800 X-20.989 Y-21.554 E222.31118
G0 X-21.059 Y-21.624
G0 F3600 X-21.334 Y-21.334
G1 F1800 X-1.375 Y-1.375 E223.71939
G0 X-1.305 Y-1.305
G0 F3600 X-1.941 Y-1.375
G1 F1800 X-21.679 Y-21.113 E225.11202
G0 X-21.749 Y-21.183
G0 F3600 X-22.024 Y-20.892
G1 F1800 X-2.506 Y-1.375 E226.48908
G0 X-2.436 Y-1.305
G0 F3600 X-3.072 Y-1.375
G1 F1800 X-22.369 Y-20.672 E227.85059
G0 X-22.439 Y-20.742
G0 F3600 X-22.713 Y-20.45
G1 F1800 X-3.638 Y-1.375 E229.19643
G0 X-3.568 Y-1.305
G0 F3600 X-4.203 Y-1.375
G1 F1800 X-23.058 Y-20.23 E230.52675
G0 X-23.128 Y-20.3
G0 F3600 X-23.403 Y-20.009
G1 F1800 X-4.769 Y-1.375 E231.84148
G0 X-4.699 Y-1.305
G0 F3600 X-5.335 Y-1.375
G1 F1800 X-23.748 Y-19.789 E233.14066
G0 X-23.818 Y-19.859
G0 F3600 X-24.093 Y-19.568
G1 F1800 X-5.9 Y-1.375 E234.42427
G0 X-5.83 Y-1.305
G0 F3600 X-6.466 Y-1.375
G1 F1800 X-24.439 Y-19.347 E235.69233
G0 X-24.509 Y-19.417
G0 F3600 X-24.783 Y-19.126
G1 F1800 X-7.032 Y-1.375 E236.94476
G0 X-6.962 Y-1.305
G0 F3600 X-7.597 Y-1.375
G1 F1800 X-25.128 Y-18.905 E238.18163
G0 X-25.198 Y-18.975
G0 F3600 X-25.473 Y-18.685
G1 F1800 X-8.163 Y-1.375 E239.40294
G0 X-8.093 Y-1.305
G0 F3600 X-8.729 Y-1.375
G1 F1800 X-25.818 Y-18.464 E240.60866
G0 X-25.888 Y-18.534
G0 F3600 X-26.163 Y-18.244
G1 F1800 X-9.294 Y-1.375 E241.79886
G0 X-9.224 Y-1.305
G0 F3600 X-9.86 Y-1.375
G1 F1800 X-26.508 Y-18.022 E242.97343
G0 X-26.578 Y-18.092
G0 F3600 X-26.853 Y-17.802
G1 F1800 X-10.426 Y-1.375 E244.13245
G0 X-10.356 Y-1.305
G0 F3600 X-10.991 Y-1.375
G1 F1800 X-27.198 Y-17.581 E245.2759
G0 X-27.268 Y-17.651
G0 F3600 X-27.543 Y-17.36
G1 F1800 X-11.557 Y-1.375 E246.40377
G0 X-11.487 Y-1.305
